icons/funding.svg

<svg width="24" height="24" viewBox="0 0 24 24" fill="none" xmlns="http://www.w3.org/2000/svg">
<path d="M16.2695 11.5028C18.8922 11.5028 21.0209 9.3742 21.0209 6.75142C21.0209 4.12863 18.8922 2 16.2695 2C13.6467 2 11.518 4.12863 11.518 6.75142C11.518 9.3742 13.6467 11.5028 16.2695 11.5028ZM21.4485 16.8244C21.0779 16.4443 20.6122 16.2542 20.0706 16.2542H13.4186L11.442 15.5605L11.7556 14.6673L13.4186 15.304H16.0794C16.412 15.304 16.6781 15.1709 16.8966 14.9524C17.1152 14.7338 17.2197 14.4677 17.2197 14.1731C17.2197 13.66 16.9727 13.3084 16.4785 13.1088L9.56996 10.5525H7.7169V19.1051L14.3689 21.0057L21.9997 18.1548C22.0092 17.6512 21.8191 17.2045 21.4485 16.8244ZM5.81634 10.5525H2V21.0057H5.81634V10.5525Z" fill="#FDD835"/></svg>

<svg xmlns="http://www.w3.org/2000/svg" viewBox="0 0 24 24" fill="none"><path fill="#FDD835" d="M16.27 11.503a4.753 4.753 0 0 0 4.75-4.752A4.753 4.753 0 0 0 16.27 2a4.753 4.753 0 0 0-4.752 4.751 4.753 4.753 0 0 0 4.752 4.752Zm5.178 5.321c-.37-.38-.836-.57-1.377-.57h-6.652l-1.977-.694.314-.893 1.663.637h2.66c.333 0 .6-.133.818-.352a1.07 1.07 0 0 0 .323-.779c0-.513-.247-.865-.741-1.064L9.57 10.553H7.717v8.552l6.652 1.9 7.63-2.85c.01-.504-.18-FUNDING.95-.55-1.33ZM5.816 10.552H2v10.454h3.816V10.552Z"/></svg>
